dist/img/inst.svg

<svg width="28" height="28" viewBox="0 0 28 28" fill="none" xmlns="http://www.w3.org/2000/svg">
<g opacity="0.4" clip-path="url(#clip0_1_306)">
<path d="M20.4206 0H7.57933C3.40002 0 0 3.40002 0 7.57933V20.4208C0 24.5999 3.40002 27.9999 7.57933 27.9999H20.4208C24.5999 27.9999 27.9999 24.5999 27.9999 20.4208V7.57933C27.9999 3.40002 24.5999 0 20.4206 0V0ZM14 21.656C9.77836 21.656 6.34395 18.2216 6.34395 14C6.34395 9.77836 9.77836 6.34395 14 6.34395C18.2216 6.34395 21.656 9.77836 21.656 14C21.656 18.2216 18.2216 21.656 14 21.656ZM21.8391 8.14949C20.5915 8.14949 19.5768 7.13478 19.5768 5.88723C19.5768 4.63967 20.5915 3.62475 21.8391 3.62475C23.0866 3.62475 24.1015 4.63967 24.1015 5.88723C24.1015 7.13478 23.0866 8.14949 21.8391 8.14949Z" fill="white"/>
<path d="M13.9999 7.98544C10.6836 7.98544 7.98535 10.6835 7.98535 14C7.98535 17.3163 10.6836 20.0145 13.9999 20.0145C17.3164 20.0145 20.0144 17.3163 20.0144 14C20.0144 10.6835 17.3164 7.98544 13.9999 7.98544Z" fill="white"/>
<path d="M21.839 5.26645C21.4968 5.26645 21.2183 5.54501 21.2183 5.88724C21.2183 6.22946 21.4968 6.50802 21.839 6.50802C22.1815 6.50802 22.4601 6.22967 22.4601 5.88724C22.4601 5.5448 22.1815 5.26645 21.839 5.26645Z" fill="white"/>
</g>
<defs>
<clipPath id="clip0_1_306">
<rect width="28" height="28" fill="white"/>
</clipPath>
</defs>
</svg>

<svg width="28" height="28" fill="none" xmlns="http://www.w3.org/2000/svg"><g opacity=".4" clip-path="url(#a)" fill="#fff"><path d="M20.42 0H7.58C3.4 0 0 3.4 0 7.58v12.84C0 24.6 3.4 28 7.58 28h12.84C24.6 28 28 24.6 28 20.42V7.58C28 3.4 24.6 0 20.42 0ZM14 21.656c-4.222 0-7.656-3.434-7.656-7.656 0-4.222 3.434-7.656 7.656-7.656 4.222 0 7.656 3.434 7.656 7.656 0 4.222-3.434 7.656-7.656 7.656Zm7.84-13.507a2.265 2.265 0 0 1-2.263-2.262 2.265 2.265 0 0 1 2.262-2.262 2.265 2.265 0 0 1 2.263 2.262 2.265 2.265 0 0 1-2.263 2.262Z"/><path d="M14 7.985A6.021 6.021 0 0 0 7.985 14 6.021 6.021 0 0 0 14 20.015 6.021 6.021 0 0 0 20.014 14 6.021 6.021 0 0 0 14 7.985ZM21.839 5.266a.622.622 0 1 0 .002 1.244.622.622 0 0 0-.002-1.244Z"/></g><defs><clipPath id="a"><path fill="#fff" d="M0 0h28v28H0z"/></clipPath></defs></svg>
